X:1
T:The Kingdom Is Coming
T:The Kingdom Is Coming
T:Rigdon McCoy Mcintosh
T:Mary B. C. Slade, 1876
T:Public Domain Courtesy of the Cyber Hymnal™
T:Public Domain Courtesy of the Cyber Hymnal™
C:Rigdon McCoy Mcintosh
Z:Public Domain
Z:Courtesy of the Cyber Hymnal™
%%score ( 1 2 ) ( 3 4 )
L:1/8
Q:1/4=105
M:4/4
K:Eb
V:1 treble 
V:2 treble 
V:3 bass 
V:4 bass 
V:1
 E2 | [EG]2 [EG][EG] [EG]2 E[EG] | [GB]2 [GB][GB] [GB]2 [EG][EB] | [Ge]2 [Bd][Ac] [GB]2 E[EG] | %4
w: 1.~From|all the dark plac- es of|earth’s heath- en rac- es, O|see how the thick sha- dows|
w: 2.~The|sun- light is glanc- ing o’er|ar- mies ad- vanc- ing To|con- quer the king- doms of|
w: 3.~With|shout- ing and sing- ing, and|ju- bi- lant ring- ing, Their|arms of re- bel- lion cast|
 [DF]6 E2 | [EG]2 [EG][EG] [EG]2 E[EG] | [GB]2 [GB][GB] [GB]2 [EG][EB] | %7
w: fly! The|voice of sal- va- tion a-|wakes ev- ery na- tion, Come|
w: sin; Our|Lord shall pos- sess them, His|pre- sence shall bless them, His|
w: down; At|last ev- ery na- tion the|Lord of sal- va- tion Their|
 [Ee]2 [EB][Ec] [EG]2 [EG][DF] | E6 ||"^Refrain" [GB]2 | [Ac]2 [Ac][Ac] [Ac][Bd] [ce]2 | %11
w: o- ver and help us, they|cry.|||
w: beau- ty shall en- ter them|in.|The|king- dom is com- ing, O|
w: king and Re- deem- er shall|crown!|||
 [GB]2 [GB][GB] [GB]2 [EB][GB] | [Ac]2 [Ac][Ac] [Ac][Bd] [ce]2 | [GB]6 E2 | %14
w: |||
w: tell ye the stor- y, God’s|ban- ner ex- alt- ed shall|be! The|
w: |||
 [EG]2 [EG][EG] [EG]2 E[EG] | [GB]2 [GB][GB] [GB]2 [EG][EB] | [Ee]2 [EB][Ec] [EG]2 [EG][DF] | E6 |] %18
w: ||||
w: earth shall be full of His|know- ledge and glor- y, As|wa- ters that co- ver the|sea.|
w: ||||
V:2
 E2 | x6 E x | x8 | x6 E x | x6 E2 | x6 E x | x8 | x8 | E6 || x2 | x8 | x8 | x8 | x6 E2 | x6 E x | %15
 x8 | x8 | E6 |] %18
V:3
 [E,G,]2 | [E,B,]2 [E,B,][E,B,] [E,B,]2 [E,G,][E,B,] | [E,E]2 [E,E][E,E] [E,E]2 [E,B,][E,G,] | %3
 [E,B,]2 [E,E][E,E] [E,E]2 [E,G,][E,B,] | [B,,B,]6 [E,G,]2 | %5
 [E,B,]2 [E,B,][E,B,] [E,B,]2 [E,G,][E,B,] | [E,E]2 [E,E][E,E] [E,E]2 [E,B,][E,G,] | %7
 [E,G,]2 [G,B,][A,E] B,2 [B,,B,][B,,A,] | [E,G,]6 || [E,E]2 | [A,E]2 [A,E][A,E] [A,E][A,E] [A,E]2 | %11
 [E,E]2 [E,E][E,E] [E,E]2 [E,B,][E,E] | [A,E]2 [A,E][A,E] [A,E][A,E] [A,E]2 | [E,E]6 [E,G,]2 | %14
 [E,B,]2 [E,B,][E,B,] [E,B,]2 [E,G,][E,B,] | [E,E]2 [E,E][E,E] [E,E]2 [E,B,][E,G,] | %16
 [E,G,]2 [G,B,][A,E] B,2 [B,,B,][B,,A,] | [E,G,]6 |] %18
V:4
 x2 | x8 | x8 | x8 | x8 | x8 | x8 | x4 B,2 x2 | x6 || x2 | x8 | x8 | x8 | x8 | x8 | x8 | %16
 x4 B,2 x2 | x6 |] %18

